X:1
T:Johnny and Jane
M:4/4
L:1/8
K:C
 cc c2| A2 AA A2 A A-| A4 ^EE ^F2| D2 D2 ^E ^F2 D-| D4| =EE ^F2| G2 G2 G G- G2-|\
 G2 F2- FF E2| C8| z4||
